X:1
T:Title
%%score { ( 1 3 ) | 2 }
L:1/8
M:4/4
K:G
V:1 treble nm="Grand Piano"
V:3 treble 
V:2 bass 
V:1
 z4 z2[Q:1/4=100] D2 | B3 [CA] [Ec]2 [DB]2 | [EA]4 [G,EG]2 [G,CE]2 | %3
 [G,D]2 [B,G][CA] [DGB]2 [DG]2 |[M:3/4] [DFA]6 |[M:1/4] [B,D]2 |[M:4/4] [DB]3 [CA] [Ec]2 [DB]2 | %7
 [EA]4 [EG]2 E2 | D2 G2 A3 [B,DG] |[M:3/4] [B,DG]6 |[M:1/4] [B,DG]2 | %11
[M:4/4] [A,DF]3 [B,DG] [FA]2 [GB]2 | [FA]4 [Fd]2 [Fd]2 | [E^c]3 [Fd] [Ge]3 [Gc] |[M:3/4] [Fd]6 | %15
[M:1/4] D2 |[M:4/4] B3 [CA] [Ec]2 [DB]2 | [EA]4 [EG]2 E2 | D3 G A3 [B,DG] | %19
[M:7/4] [B,DG]6 z2 z2 z4 |[M:4/4] [CEG]8 | [B,DG]8 |] %22
V:2
 z4 z2 [G,B,]2 | [G,D]3 [G,,G,] [G,,G,]2 [G,,G,]2 | [C,G,]4 C,2 C,2 | B,,2 B,,A,, G,,2 B,,2 | %4
[M:3/4] D,6 |[M:1/4] G,2 |[M:4/4] G,3 [G,,G,] [G,,G,]2 [G,,G,]2 | [C,G,]4 [C,G,]2 [C,G,C]2 | %8
 [D,G,B,]2 [D,B,D]2 [D,CD]3 G,, |[M:3/4] G,,6 |[M:1/4] G,,2 |[M:4/4] D,3 D, [D,D]2 [D,D]2 | %12
 [D,D]4 [D,A,]2 [D,A,]2 | [A,,A,]3 [A,,A,] [A,,A,]3 [E,A,] |[M:3/4] [D,A,]6 |[M:1/4] [G,B,]2 | %16
[M:4/4] [G,D]3 [G,,G,] [G,,G,]2 [G,,G,]2 | [C,G,]4 [C,G,]2 [C,G,C]2 | %18
 [D,G,B,]3 [D,B,D] [D,CD]3 G,, |[M:7/4] G,,6 z2 z2 z4 |[M:4/4] C,8 | G,8 |] %22
V:3
 x8 | x8 | x8 | z2 D2 z4 |[M:3/4] x6 |[M:1/4] x2 |[M:4/4] x8 | x8 | x8 |[M:3/4] x6 |[M:1/4] x2 | %11
[M:4/4] x8 | x8 | x8 |[M:3/4] x6 |[M:1/4] x2 |[M:4/4] x8 | x8 | x8 |[M:7/4] x14 |[M:4/4] x8 | x8 |] %22

